X: 1
T: Fiddle Faddle    [G]
O: John Walsh, c. 1740
%R: reel
B: John Walsh "Caledonian Country Dances with a Thorough Bass" p.3
B: John Walsh "Caledonian Country Dances 3d Edition" p.6-7
S: 1: http://javanese.imslp.info/files/imglnks/usimg/4/41/IMSLP74348-PMLP149069-Johnson_caledonian_country_dances.pdf p.3
S: 3: CCD3  http://petrucci.mus.auth.gr/imglnks/usimg/6/61/IMSLP173105-PMLP149069-caledoniancountr00ingl.pdf p.6-7
Z: 2013, 2017 John Chambers <jc:trillian.mit.edu> (simplified 2018)
N: This is a close relative of the Tail Toddle Reel (see Aird v.2 1785).
M: C|
L: 1/8
K: G
% - - - - - - - - - - - - - - - - - - - - - - - - -
|: "G"G{G}G BG "C"c2 GE | "G"G{G}G BG "D"A2 FD | "G"G{G}G BG "C"cA "G"BG | "Am"A{B}c "G"B{c}d "D"A2 FD :|
|: "C"c2 GE Ec GE | "C"c2 GE "D"DA FD | "C"c2 GE EC GE | "Am"A{B}c "G"B{c}d "D"A2 FD :|
|: "G"G{G}G BG "C"cA "G"BG | "G"G{G}G BG "D"AD FD | "G"G{G}G BG "C"cA "G"BG | "Am"A{B}c "G"B{c}d "D"A2 FD :|
|: "C"c2 Ec Ec GE | "C"c2 Ec "D"DA FD | "C"c2 Ec Ec GE | "Am"A{B}c "G"B{c}d "D"A2 FD :|
% - - - - - - - - - - - - - - - - - - - - - - - - -

%%sep 1 1 500

